X:44
T:The Chrysanthemum
C:Scot Joplin - Arr. Nancy Blake
N:From "The Norman and Nancy Blake Compact Disk" Transcribed by Mike Stangeland
L:1/8
Q:1/4=152
M:4/4
K:D
z8 | a^g =gf "A7"e4 | A^G =GF "A7"E4 | "G"B^A Bg "A"fd ec | "D"d2 [d2F2] [d2F2] fe | 
"G"ga bg "A"ef gA | "D"de fA zd A2 | "G"A^A Bg "A"B=c ^ca | "D"dc df zd fa | "G"ga bg "A"ef gA | 
"D"de fA2^G AB | "A"cd ^de "E"fe =db | "A"ea a2 a2 f2 | ga bg ef gA | "D"de fA zd A2 | 
"G"A^A Bg "A"B=c ^ca | "D"dc df zd f2 | "B"fg af ^de fB | "Em"e^d ef g2 ^g2 | 
"A"ad' af eA ce | "D"cd [d2F2] [d4F4] |: "G"[g2B2] dd dA Bd | "C"e2 {f}gg gg ge | 
"D"d2 A=c zd A2 | "G"GF GA ^A[BD] [BD][BD] | [B2D2] [dD]d dA Bd | "C"e2 {f}gg gg gg | 
"B"f2 ef zg f2 | "Em"f/g/f z2 "D"e2 d2 | "G"[B2D2] dd dA Bd | "C"e2 {f}gg ge =cG | 
"G"B=c ^cd "G7"e=f ed | "C"=c2 "Em"B2 "Am"c2 EF | "C"GA GF "A7"G2 E2 | "G"D2 [BD]B "E"BB =cB | 
"A7"GE FG "D"A2 B2 |1 G"G"D EF G^G A^A :|2 G2 G,6 |] "D"cd [d2F2] [d2F2] FG | AA A^G "A"=G2 e2 | 
"D"dd dF B2 A2 | "A"e^d ed e2 g2 | "D"fA Bc dc B^A | AA A^G =G2 e2 | dd dF B2 =c^c | 
"A"c=c ^ce "E"A2 B2 | "A"A2 E2 A,2 A2 | {^G}AA AG =G2 e2 | "D"dd dF B2 A2 | "A"e^d ed e2 {e}=f2 | 
(3"F#"fff (3fff f2 F2 | [F^A,]F FE [cE]c cB | {^A}"D"B2 =AA AF DA, | "E"B,=C ^CE "A"CD EA | 
"D"D2 A,2 D3^A, |: "Bm"B,D CD z=F ^FB | "F#"^A2 FE DC2^A, | "Bm"B,2 CD zE FB | 
"F#"^A2 fe dc2A | "Bm"B^A BA B2 G2 | "F#"F2 f=f ^f=f ^f2 | "Bm"B^A BA B2 G2 | 
"F#"F4 [^A3F3C3]^A, | "Bm"B,D CD z=F ^FB | "F#"^A2 FE DC2^A, | "Bm"B,2 CD zE FB | 
"F#"^A2 fe dc zB | "Bm"f=f ^fb f=f ^ff | (3"Em"ggg (3ggg [g2B2] [g2B2] | "F#"fg fe ce dc | 
|1 B4 F3^A, :|2 B4 "D"AD FG |] {^G}"D"AA AG "A"=G2 e2 | "D"dd dF B2 A2 | "A"e^d ed e2 g2 | 
"D"fA Bc dc B^A | AA A^G =G2 e2 | dd dF B2 =c^c | "A"c=c ^ce "E"A2 B2 | "A"A2 E2 A,2 A2 | 
{^G}AA AG =G2 e2 | "D"dd dF B2 A2 | "A"e^d ed e2 {e}=f2 | (3"F#"fff (3fff f2 F2 | 
[F^A,]F FE [cE]c cB | {^A}"D"B2 =AA AF DA, | "E"B,=C ^CE "A"CD EA | "D"D2 A,2 D4 | 
a^g =gf "A7"e4 | A^G =GF "A7"E4 | "G"B^A Bg "A"fd ec | "D"d2 A2 [f4d4D4] | 


